X: 11491
T: Ed Reavy's
R: reel
M: 4/4
K: Gmajor
Bd|dGBG dGBG|A=F (3FEF ABcA|BGdG DGBd|cA=FA G2 AB|
dGBG DGBG|A=F (3FEF CFAF|GABc dgfd|cA=FA G2:|
|:Bc|dg {/a}(3gfg afgf|dcAG =FGAF|dg {/a}(3gfg afgf|dcAc =f3e|
dg {/a}(3gfg ag {/a}(3gfg|=fdcA =FGAF|GABc dgbg|=fdcA G2:|

